packages/core/src/svgs/networks/mono/elastos.svg

<svg width="24" height="24" viewBox="0 0 24 24" fill="none" xmlns="http://www.w3.org/2000/svg">
<path d="M12 12.3452L17 9.56739L22 6.77537L17 4L12 6.77537L7 4L2 6.77537L7 9.56739L12 12.3452Z" fill="white"/>
<path d="M17 11.6572L12 14.4326L7 11.6572L2 14.4326L7 17.2246L12 20L17 17.2246L22 14.4326L17 11.6572Z" fill="white"/>
</svg>

<svg xmlns="http://www.w3.org/2000/svg" width="24" height="24" fill="none" viewBox="0 0 24 24">
    <path fill="#fff" d="m12 12.345 5-2.778 5-2.792L17 4l-5 2.775L7 4 2 6.775l5 2.792z"/>
    <path fill="#fff" d="m17 11.657-5 2.776-5-2.776-5 2.776 5 2.792L12 20l5-2.775 5-2.792z"/>
</svg>
